F[ERK2
CUT[WIE DIE BLUEMLEIN DRAUSSEN ZITTERN]
REG[Europa, Mitteleuropa, Deutschland; Frankreich, Elsass]
KEY[E0779A 16  C 3/4 4/4]
MEL[-5_.-6  -5__-3__1_.2  1__-7__
    -5_-5_  -7__.-6_-5_-4_  -3___
    -5_.-6  -5__-3__1_.2  1__-7__
    -5_-5_  -7__.-6_-5_-4_  -3___0_
    -5_  -5_3_1__.-7_  -6_4_2__.
    1_  -7_.-6-5_-5_-5_-5_-6_-7_  1__0__.
    -5_  -5_3_1__.-7_  -6_4_2__.
    1_  -7_.-6-5_-7_3_.2  1___ //] >>
FCT[Abschieds - Lied, Liebe]
